Numix/16/status/indicator-keyboard-Ie-4.svg

<?xml version="1.0" encoding="UTF-8" standalone="no"?>
<svg
   xmlns:dc="http://purl.org/dc/elements/1.1/"
   xmlns:cc="http://creativecommons.org/ns#"
   xmlns:rdf="http://www.w3.org/1999/02/22-rdf-syntax-ns#"
   xmlns:svg="http://www.w3.org/2000/svg"
   xmlns="http://www.w3.org/2000/svg"
   xmlns:sodipodi="http://sodipodi.sourceforge.net/DTD/sodipodi-0.dtd"
   xmlns:inkscape="http://www.inkscape.org/namespaces/inkscape"
   viewBox="0 0 16 16"
   id="svg2"
   version="1.1"
   inkscape:version="0.91 r13725"
   sodipodi:docname="indicator-keyboard-Ie-4.svg">
  <metadata
     id="metadata14">
    <rdf:RDF>
      <cc:Work
         rdf:about="">
        <dc:format>image/svg+xml</dc:format>
        <dc:type
           rdf:resource="http://purl.org/dc/dcmitype/StillImage" />
      </cc:Work>
    </rdf:RDF>
  </metadata>
  <defs
     id="defs12" />
  <sodipodi:namedview
     pagecolor="#ffffff"
     bordercolor="#666666"
     borderopacity="1"
     objecttolerance="10"
     gridtolerance="10"
     guidetolerance="10"
     inkscape:pageopacity="0"
     inkscape:pageshadow="2"
     inkscape:window-width="640"
     inkscape:window-height="480"
     id="namedview10"
     showgrid="false"
     inkscape:zoom="14.75"
     inkscape:cx="8"
     inkscape:cy="8"
     inkscape:window-x="65"
     inkscape:window-y="24"
     inkscape:window-maximized="0"
     inkscape:current-layer="svg2" />
  <path
     style="fill:#ececec;fill-opacity:1"
     d="M 1.5996094 0 C 0.71320937 2.9605947e-16 0 0.71320937 0 1.5996094 L 0 14.400391 C 2.9605947e-16 15.286791 0.71320937 16 1.5996094 16 L 14.400391 16 C 15.286791 16 16 15.286791 16 14.400391 L 16 1.5996094 C 16 0.71320937 15.286791 0 14.400391 0 L 1.5996094 0 z M 3.3164062 4.859375 L 3.9277344 4.859375 L 3.9277344 11.095703 L 3.3164062 11.095703 L 3.3164062 4.859375 z M 7.2675781 6.3359375 C 7.8375781 6.3359375 8.2909531 6.5205781 8.6269531 6.8925781 C 8.9689531 7.2645781 9.1386719 7.8373281 9.1386719 8.6113281 C 9.1386719 8.6593281 9.1368594 8.7078594 9.1308594 8.7558594 C 9.1308594 8.8038594 9.1270938 8.848625 9.1210938 8.890625 L 5.8535156 8.890625 C 5.8715156 9.460625 6.0133437 9.8990779 6.2773438 10.205078 C 6.5413437 10.511078 6.9611094 10.664062 7.5371094 10.664062 C 7.8551094 10.664062 8.1069688 10.634219 8.2929688 10.574219 C 8.4789688 10.514219 8.6132656 10.463875 8.6972656 10.421875 L 8.8066406 10.925781 C 8.7226406 10.973781 8.562125 11.029703 8.328125 11.095703 C 8.100125 11.161703 7.8315312 11.195312 7.5195312 11.195312 C 7.1115312 11.195312 6.7626094 11.135625 6.4746094 11.015625 C 6.1866094 10.895625 5.9496719 10.727719 5.7636719 10.511719 C 5.5776719 10.295719 5.443375 10.040094 5.359375 9.7460938 C 5.275375 9.4460938 5.2324219 9.119625 5.2324219 8.765625 C 5.2324219 8.357625 5.2902969 8.003125 5.4042969 7.703125 C 5.5242969 7.397125 5.6772813 7.1415 5.8632812 6.9375 C 6.0552812 6.7335 6.2717188 6.5842813 6.5117188 6.4882812 C 6.7577188 6.3862812 7.0095781 6.3359375 7.2675781 6.3359375 z M 7.2753906 6.8574219 C 7.0653906 6.8574219 6.8769844 6.8984219 6.7089844 6.9824219 C 6.5469844 7.0664219 6.4033438 7.1802188 6.2773438 7.3242188 C 6.1573437 7.4622188 6.0602813 7.6245469 5.9882812 7.8105469 C 5.9222812 7.9965469 5.8830937 8.1924844 5.8710938 8.3964844 L 8.5351562 8.3964844 C 8.5231562 7.9104844 8.4093594 7.5317188 8.1933594 7.2617188 C 7.9773594 6.9917187 7.6713906 6.8574219 7.2753906 6.8574219 z M 11.783203 8.8417969 L 12.181641 8.8417969 L 12.181641 11.486328 L 12.683594 11.486328 L 12.683594 11.796875 L 12.181641 11.796875 L 12.181641 12.896484 L 11.806641 12.896484 L 11.806641 11.796875 L 9.9707031 11.796875 L 9.9707031 11.5625 C 10.040903 11.3753 10.136919 11.163687 10.261719 10.929688 C 10.390419 10.695688 10.535413 10.456637 10.695312 10.210938 C 10.855213 9.9652374 11.029597 9.7261874 11.216797 9.4921875 C 11.403997 9.2542875 11.592103 9.0367969 11.783203 8.8417969 z M 11.806641 9.2695312 C 11.670141 9.4099313 11.531025 9.5706063 11.390625 9.7539062 C 11.250225 9.9372063 11.116981 10.129225 10.988281 10.328125 C 10.863481 10.523125 10.745919 10.719069 10.636719 10.917969 C 10.527519 11.116869 10.435428 11.306928 10.361328 11.486328 L 11.806641 11.486328 L 11.806641 9.2695312 z "
     id="path4" />
</svg>

<svg xmlns="http://www.w3.org/2000/svg" viewBox="0 0 16 16">
 <path d="m 1.6 0 c -0.886 0 -1.6 0.713 -1.6 1.6 l 0 12.801 c 0 0.886 0.713 1.6 1.6 1.6 l 12.801 0 c 0.886 0 1.6 -0.713 1.6 -1.6 l 0 -12.801 c 0 -0.886 -0.713 -1.6 -1.6 -1.6 l -12.801 0 z m 1.717 4.859 l 0.611 0 l 0 6.236 l -0.611 0 l 0 -6.236 z m 3.951 1.477 c 0.57 0 1.023 0.185 1.359 0.557 c 0.342 0.372 0.512 0.945 0.512 1.719 c 0 0.048 -0.002 0.097 -0.008 0.145 c 0 0.048 -0.004 0.093 -0.01 0.135 l -3.268 0 c 0.018 0.57 0.16 1.01 0.424 1.314 c 0.264 0.306 0.684 0.459 1.26 0.459 c 0.318 0 0.57 -0.03 0.756 -0.09 c 0.186 -0.06 0.32 -0.11 0.404 -0.152 l 0.109 0.504 c -0.084 0.048 -0.245 0.104 -0.479 0.17 c -0.228 0.066 -0.497 0.1 -0.809 0.1 c -0.408 0 -0.757 -0.06 -1.045 -0.18 c -0.288 -0.12 -0.525 -0.288 -0.711 -0.504 c -0.186 -0.216 -0.32 -0.472 -0.404 -0.766 c -0.084 -0.3 -0.127 -0.626 -0.127 -0.98 c 0 -0.408 0.058 -0.762 0.172 -1.063 c 0.12 -0.306 0.273 -0.562 0.459 -0.766 c 0.192 -0.204 0.408 -0.353 0.648 -0.449 c 0.246 -0.102 0.498 -0.152 0.756 -0.152 z m 0.008 0.521 c -0.21 0 -0.398 0.041 -0.566 0.125 c -0.162 0.084 -0.306 0.198 -0.432 0.342 c -0.12 0.138 -0.217 0.3 -0.289 0.486 c -0.066 0.186 -0.105 0.382 -0.117 0.586 l 2.664 0 c -0.012 -0.486 -0.126 -0.865 -0.342 -1.135 c -0.216 -0.27 -0.522 -0.404 -0.918 -0.404 z m 4.508 1.984 l 0.398 0 l 0 2.645 l 0.502 0 l 0 0.311 l -0.502 0 l 0 1.1 l -0.375 0 l 0 -1.1 l -1.836 0 l 0 -0.234 c 0.07 -0.187 0.166 -0.399 0.291 -0.633 c 0.129 -0.234 0.274 -0.473 0.434 -0.719 c 0.16 -0.246 0.334 -0.485 0.521 -0.719 c 0.187 -0.238 0.375 -0.455 0.566 -0.65 z m 0.023 0.428 c -0.137 0.14 -0.276 0.301 -0.416 0.484 c -0.14 0.183 -0.274 0.375 -0.402 0.574 c -0.125 0.195 -0.242 0.391 -0.352 0.59 c -0.109 0.199 -0.201 0.389 -0.275 0.568 l 1.445 0 l 0 -2.217 z" style="fill:#ececec;fill-opacity:1"/>
</svg>
